dist/img/contols/controls-icon2.svg

<svg width="22" height="21" viewBox="0 0 22 21" fill="none" xmlns="http://www.w3.org/2000/svg">
<path d="M11.2519 11.2978H20.4378C20.7502 11.2978 21 11.048 21 10.7357C21 10.4234 20.7502 10.1735 20.4378 10.1735H11.2519C10.9896 8.87018 9.83614 7.8833 8.45367 7.8833C7.0712 7.8833 5.91776 8.87018 5.65542 10.1735L1.56631 10.1735C1.25401 10.1735 1.00416 10.4234 1.00416 10.7357C1.00416 11.048 1.25401 11.2978 1.56631 11.2978H5.65542C5.91776 12.6012 7.0712 13.5881 8.45367 13.5881C9.83198 13.5881 10.9896 12.6053 11.2519 11.2978ZM6.72559 10.7357C6.72559 9.78211 7.5001 9.0076 8.45367 9.0076C9.40724 9.0076 10.1818 9.78211 10.1818 10.7357C10.1818 11.6893 9.40724 12.4638 8.45367 12.4638C7.5001 12.4638 6.72559 11.6893 6.72559 10.7357Z" fill="#B4B3BB"/>
<path d="M15.9656 4.41453L20.4378 4.41453C20.7502 4.41453 21 4.16469 21 3.85238C21 3.54008 20.7502 3.29024 20.4378 3.29024L15.9656 3.29023C15.7033 1.98688 14.5499 1 13.1674 1C11.7849 1 10.6315 1.98688 10.3691 3.29023L1.56631 3.29023C1.25401 3.29023 1.00416 3.54008 1.00416 3.85238C1.00416 4.16469 1.25401 4.41453 1.56631 4.41453L10.3733 4.41453C10.6356 5.71788 11.7891 6.70477 13.1716 6.70477C14.554 6.70477 15.7033 5.71788 15.9656 4.41453ZM11.4393 3.85238C11.4393 2.89881 12.2138 2.1243 13.1674 2.1243C14.121 2.1243 14.8955 2.89881 14.8955 3.85238C14.8955 4.80595 14.121 5.58047 13.1674 5.58047C12.2138 5.58047 11.4393 4.80179 11.4393 3.85238Z" fill="#B4B3BB"/>
<path d="M15.9656 18.1391L20.4378 18.1391C20.7502 18.1391 21 17.8893 21 17.577C21 17.2647 20.7502 17.0148 20.4378 17.0148H15.9656C15.7033 15.7115 14.5499 14.7246 13.1674 14.7246C11.7849 14.7246 10.6315 15.7115 10.3691 17.0148H1.56215C1.24984 17.0148 1 17.2647 1 17.577C1 17.8893 1.24984 18.1391 1.56215 18.1391H10.3733C10.6356 19.4425 11.7891 20.4294 13.1716 20.4294C14.554 20.4294 15.7033 19.4467 15.9656 18.1391ZM11.4393 17.577C11.4393 16.6234 12.2138 15.8489 13.1674 15.8489C14.121 15.8489 14.8955 16.6234 14.8955 17.577C14.8955 18.5306 14.121 19.3051 13.1674 19.3051C12.2138 19.3051 11.4393 18.5306 11.4393 17.577Z" fill="#B4B3BB"/>
<path d="M11.2519 11.2978H20.4378C20.7502 11.2978 21 11.048 21 10.7357C21 10.4234 20.7502 10.1735 20.4378 10.1735H11.2519C10.9896 8.87018 9.83614 7.8833 8.45367 7.8833C7.0712 7.8833 5.91776 8.87018 5.65542 10.1735L1.56631 10.1735C1.25401 10.1735 1.00416 10.4234 1.00416 10.7357C1.00416 11.048 1.25401 11.2978 1.56631 11.2978H5.65542C5.91776 12.6012 7.0712 13.5881 8.45367 13.5881C9.83198 13.5881 10.9896 12.6053 11.2519 11.2978ZM6.72559 10.7357C6.72559 9.78211 7.5001 9.0076 8.45367 9.0076C9.40724 9.0076 10.1818 9.78211 10.1818 10.7357C10.1818 11.6893 9.40724 12.4638 8.45367 12.4638C7.5001 12.4638 6.72559 11.6893 6.72559 10.7357Z" stroke="#B4B3BB" stroke-width="0.5"/>
<path d="M15.9656 4.41453L20.4378 4.41453C20.7502 4.41453 21 4.16469 21 3.85238C21 3.54008 20.7502 3.29024 20.4378 3.29024L15.9656 3.29023C15.7033 1.98688 14.5499 1 13.1674 1C11.7849 1 10.6315 1.98688 10.3691 3.29023L1.56631 3.29023C1.25401 3.29023 1.00416 3.54008 1.00416 3.85238C1.00416 4.16469 1.25401 4.41453 1.56631 4.41453L10.3733 4.41453C10.6356 5.71788 11.7891 6.70477 13.1716 6.70477C14.554 6.70477 15.7033 5.71788 15.9656 4.41453ZM11.4393 3.85238C11.4393 2.89881 12.2138 2.1243 13.1674 2.1243C14.121 2.1243 14.8955 2.89881 14.8955 3.85238C14.8955 4.80595 14.121 5.58047 13.1674 5.58047C12.2138 5.58047 11.4393 4.80179 11.4393 3.85238Z" stroke="#B4B3BB" stroke-width="0.5"/>
<path d="M15.9656 18.1391L20.4378 18.1391C20.7502 18.1391 21 17.8893 21 17.577C21 17.2647 20.7502 17.0148 20.4378 17.0148H15.9656C15.7033 15.7115 14.5499 14.7246 13.1674 14.7246C11.7849 14.7246 10.6315 15.7115 10.3691 17.0148H1.56215C1.24984 17.0148 1 17.2647 1 17.577C1 17.8893 1.24984 18.1391 1.56215 18.1391H10.3733C10.6356 19.4425 11.7891 20.4294 13.1716 20.4294C14.554 20.4294 15.7033 19.4467 15.9656 18.1391ZM11.4393 17.577C11.4393 16.6234 12.2138 15.8489 13.1674 15.8489C14.121 15.8489 14.8955 16.6234 14.8955 17.577C14.8955 18.5306 14.121 19.3051 13.1674 19.3051C12.2138 19.3051 11.4393 18.5306 11.4393 17.577Z" stroke="#B4B3BB" stroke-width="0.5"/>
</svg>

<svg width="22" height="21" fill="none" xmlns="http://www.w3.org/2000/svg"><path d="M11.252 11.298h9.186a.56.56 0 00.562-.562.56.56 0 00-.562-.563h-9.186a2.859 2.859 0 00-2.798-2.29 2.859 2.859 0 00-2.799 2.29H1.566a.56.56 0 00-.562.563c0 .312.25.562.562.562h4.09a2.859 2.859 0 002.798 2.29 2.858 2.858 0 002.798-2.29zm-4.526-.562a1.73 1.73 0 013.456 0 1.73 1.73 0 01-3.456 0zm9.24-6.321h4.472A.56.56 0 0021 3.852a.56.56 0 00-.562-.562h-4.472A2.859 2.859 0 0013.167 1a2.859 2.859 0 00-2.798 2.29H1.566a.56.56 0 00-.562.562c0 .313.25.563.562.563h8.807a2.859 2.859 0 002.799 2.29 2.854 2.854 0 002.794-2.29zm-4.527-.563a1.73 1.73 0 013.457 0 1.73 1.73 0 01-1.729 1.728 1.732 1.732 0 01-1.728-1.728zm4.527 14.288h4.472a.56.56 0 00.562-.563.56.56 0 00-.562-.562h-4.472a2.859 2.859 0 00-2.799-2.29 2.859 2.859 0 00-2.798 2.29H1.562a.56.56 0 00-.562.562c0 .312.25.562.562.562h8.811a2.859 2.859 0 002.799 2.29 2.85 2.85 0 002.794-2.29zm-4.527-.563a1.73 1.73 0 013.457 0 1.73 1.73 0 01-3.457 0z" fill="#B4B3BB"/><path d="M11.252 11.298h9.186a.56.56 0 00.562-.562.56.56 0 00-.562-.563h-9.186a2.859 2.859 0 00-2.798-2.29 2.859 2.859 0 00-2.799 2.29H1.566a.56.56 0 00-.562.563c0 .312.25.562.562.562h4.09a2.859 2.859 0 002.798 2.29 2.858 2.858 0 002.798-2.29zm-4.526-.562a1.73 1.73 0 013.456 0 1.73 1.73 0 01-3.456 0zm9.24-6.321h4.472A.56.56 0 0021 3.852a.56.56 0 00-.562-.562h-4.472A2.859 2.859 0 0013.167 1a2.859 2.859 0 00-2.798 2.29H1.566a.56.56 0 00-.562.562c0 .313.25.563.562.563h8.807a2.859 2.859 0 002.799 2.29 2.854 2.854 0 002.794-2.29zm-4.527-.563a1.73 1.73 0 013.457 0 1.73 1.73 0 01-1.729 1.728 1.732 1.732 0 01-1.728-1.728zm4.527 14.288h4.472a.56.56 0 00.562-.563.56.56 0 00-.562-.562h-4.472a2.859 2.859 0 00-2.799-2.29 2.859 2.859 0 00-2.798 2.29H1.562a.56.56 0 00-.562.562c0 .312.25.562.562.562h8.811a2.859 2.859 0 002.799 2.29 2.85 2.85 0 002.794-2.29zm-4.527-.563a1.73 1.73 0 013.457 0 1.73 1.73 0 01-3.457 0z" stroke="#B4B3BB" stroke-width=".5"/></svg>
